<?xml version="1.0" encoding="UTF-8"?>
<map version="1.10" tiledversion="1.12.2" orientation="orthogonal" renderorder="right-down" width="15" height="15" tilewidth="32" tileheight="32" infinite="0" nextlayerid="6" nextobjectid="1">
 <tileset firstgid="1" source="../../../src/maps/palltetown.tsx"/>
 <tileset firstgid="353" source="../../../src/maps/ocean.tsx"/>
 <tileset firstgid="965" source="../../../src/maps/Game Boy Advance - Pokemon FireRed _ LeafGreen - Tilesets - Tileset.tsx"/>
 <layer id="1" name="ground" width="15" height="15">
  <data encoding="csv">
163,163,163,163,163,163,163,163,163,163,163,163,163,163,163,
163,163,163,163,163,163,163,163,163,163,163,163,163,163,163,
163,163,163,163,163,163,163,163,163,163,163,163,163,163,163,
163,163,163,163,163,163,163,163,163,163,163,163,163,163,163,
163,163,163,163,163,163,163,163,163,163,163,163,163,163,163,
163,163,163,163,163,163,163,163,163,163,163,163,163,163,163,
163,163,163,163,163,163,163,163,163,163,163,163,163,163,163,
163,163,163,163,163,163,163,163,163,163,163,163,163,163,163,
163,163,163,163,163,163,163,163,163,163,163,163,163,163,163,
163,163,163,163,163,163,163,163,163,163,163,163,163,163,163,
163,163,163,163,163,163,163,163,163,163,163,163,163,163,163,
163,163,163,163,163,163,163,163,163,163,163,163,163,163,163,
163,163,163,163,163,163,163,163,163,163,163,163,163,163,163,
163,163,163,163,163,163,163,163,163,163,163,163,163,163,163,
163,163,163,163,163,163,163,163,163,163,163,163,163,163,163
</data>
 </layer>
 <layer id="2" name="trees" width="15" height="15">
  <data encoding="csv">
33,34,42,42,42,42,42,42,42,42,42,42,42,42,44,
33,162,0,0,0,0,0,0,0,0,0,0,0,75,300,
33,66,0,0,0,0,0,0,0,0,0,0,0,75,300,
33,98,0,0,0,0,0,0,0,0,0,0,0,75,300,
33,130,0,0,0,0,0,0,0,0,0,0,0,75,300,
33,162,0,0,0,0,0,0,0,0,0,0,0,75,300,
33,162,0,0,0,0,0,0,0,0,0,0,0,75,300,
33,162,0,0,0,0,0,0,0,0,0,0,0,75,300,
33,162,0,0,0,0,0,0,0,0,0,0,0,75,300,
33,162,0,0,0,0,0,0,0,0,0,0,0,75,300,
33,162,0,0,0,0,0,0,0,0,0,0,0,75,300,
33,162,0,0,0,0,0,0,0,0,0,0,0,75,300,
33,162,0,0,0,263,264,264,264,265,264,264,266,267,300,
33,290,291,291,291,295,296,296,296,297,296,296,298,299,300,
321,322,323,323,323,323,323,323,323,323,323,323,323,323,332
</data>
 </layer>
 <layer id="3" name="buildings" width="15" height="15">
  <data encoding="csv">
0,0,0,0,0,0,0,0,0,0,0,0,0,0,0,
0,0,0,0,0,0,0,0,0,0,0,0,0,0,0,
0,66,67,68,69,70,0,0,0,0,0,0,0,0,0,
0,98,99,100,101,102,0,0,0,0,0,0,0,0,0,
0,130,131,132,133,134,0,2147483942,2147483941,2147483941,2147483941,294,0,0,0,
0,0,0,0,0,0,0,1610613029,443,443,443,3758096677,0,0,0,
0,0,0,0,0,0,0,3221225766,3221225765,3221225765,3221225765,1073742118,0,0,0,
0,0,0,0,0,0,0,0,0,0,0,0,0,0,0,
0,0,195,196,197,198,0,0,0,0,0,0,0,0,0,
0,0,227,228,229,230,0,0,0,167,168,169,170,171,0,
0,0,259,260,261,262,0,0,0,199,200,201,202,203,0,
0,0,0,0,0,0,0,0,0,231,232,233,234,235,0,
0,0,0,0,0,0,0,0,0,0,0,0,0,0,0,
0,0,0,0,0,0,0,0,0,0,0,0,0,0,0,
0,0,0,0,0,0,0,0,0,0,0,0,0,0,0
</data>
 </layer>
 <layer id="5" name="grass" width="15" height="15">
  <data encoding="csv">
0,0,0,0,0,0,0,0,0,0,0,0,0,0,0,
0,0,0,0,0,0,0,0,0,0,0,0,0,0,0,
0,0,0,0,0,0,0,0,0,0,0,0,0,0,0,
0,0,0,0,0,0,0,2147484699,2147484699,2147484699,2147484699,2147484699,2147484699,0,0,
0,0,0,0,0,0,0,0,0,0,0,0,1051,0,0,
0,0,0,0,0,0,0,0,0,0,0,0,1051,0,0,
0,0,0,0,0,0,0,0,0,0,0,0,1051,0,0,
0,0,0,0,0,0,0,0,0,0,0,0,0,0,0,
0,0,0,0,0,0,0,0,0,0,0,0,0,0,0,
0,0,0,0,0,0,0,0,0,0,0,0,0,0,0,
0,0,0,0,0,0,0,0,0,0,0,0,0,0,0,
0,0,0,0,0,0,0,0,0,0,0,0,0,0,0,
0,0,0,0,0,0,0,0,0,0,0,0,0,0,0,
0,0,0,0,0,0,0,0,0,0,0,0,0,0,0,
0,0,0,0,0,0,0,0,0,0,0,0,0,0,0
</data>
 </layer>
</map>
